svg/Octicons/file-media.svg

<svg height="1024" width="768" xmlns="http://www.w3.org/2000/svg">
  <path d="M576 64H0v896h768V256L576 64zM704 896H64V128h448l192 192V896zM128 256v512h128c0-70.625 57.344-128 128-128-70.656 0-128-57.375-128-128 0-70.656 57.344-128 128-128 70.625 0 128 57.344 128 128 0 70.625-57.375 128-128 128 70.625 0 128 57.375 128 128h128V384L512 256H128z" />
</svg>

<svg xmlns="http://www.w3.org/2000/svg" viewBox="0 0 768 1024"><path d="m576 64h-576v896h768v-704l-192-192m128 832h-640v-768h448l192 192v576m-576-640v512h128c0-70.62 57.34-128 128-128-70.66 0-128-57.37-128-128 0-70.66 57.34-128 128-128 70.62 0 128 57.34 128 128 0 70.62-57.37 128-128 128 70.62 0 128 57.37 128 128h128v-384l-128-128h-384"/></svg>
